X:1
T:Marching Song
T:Marching Song
T:George Chadwick Stock
T:Lucy G. Stock, 1899
T:Public Domain Courtesy of the Cyber Hymnal™
T:Public Domain Courtesy of the Cyber Hymnal™
C:George Chadwick Stock
Z:Public Domain
Z:Courtesy of the Cyber Hymnal™
%%score ( 1 2 ) ( 3 4 ) ( 5 6 )
L:1/8
Q:1/4=107
M:4/4
K:Bb
V:1 treble 
V:2 treble 
V:3 treble 
V:4 treble 
V:5 bass 
V:6 bass 
V:1
 [Dd]2"^Introduction and Interlude" z [DG]2 [DF]2 x | [Ee]2 z [EG]2 [EF]2 x | %2
w: ~ ~ ~|~ ~ ~|
w: ~ ~ ~|~ ~ ~|
w: ~ ~ ~|~ ~ ~|
 [DB]2 [Dd]2 [Ee][Dd][Ee][=E=e] | [FBdf]4 [FAef]4 | [Bdb]4 z4 | d3 d c2 B2 | (Ac) (BG) G2 F2 | %7
w: ~ ~ ~ ~ ~ ~|~ ~|~|~ ~ ~ ~|1.~We * are * lit- tle|
w: ~ ~ ~ ~ ~ ~|~ ~|~|~ ~ ~ ~|2.~Brave- * ly * ’gainst the|
w: ~ ~ ~ ~ ~ ~|~ ~|~|~ ~ ~ ~|3.~Ban- * ners * fly- ing,|
 D3 E F2 B2 | G2 (AB) c4 | d3 d c2 B2 | (Ac) (BG) G2 F2 | F2 G2 (AB) c2 | A2 G2 F4 || %13
w: sol- diers march- ing,|In the * ser-|vice of our king;|Forth * to * bat- tle|we are press- * ing,|While our hap-|
w: wrong we’re fight- ing,|Christ, our * cap-|tain, leads the way.|Trust- * ing * Him, we’ll|sure- ly con- * quer,|Fierce and hot|
w: voic- es shout- ing,|Prais- es * to|our Sav- ior king,|On * to * vic- tory|we are march- * ing,|Hear the joy-|
"^Refrain" e2 e2 z4 | d2 d2 z4 | c2 =B2 (cA) F2 | B2 (AG) F4 | G3 G e2 e2 | F3 F d2 d2 | %19
w: py voic-|es sing.|||||
w: tho’ be|the fray.|For- ward, sol- * diers!|In our * lead-|er’s name we go.|For- ward, sol- diers!|
w: ous watch-|word ring.|||||
 B2 B2 (BA) (Bc) | d2 c2 B4 |] %21
w: ||
w: Now ad- vanc- * ing, *|Let us tri-|
w: ||
V:2
 x2 ([DF]2 A) x3 | x2 ([EF]2 A) x3 | x8 | x8 | x8 | x8 | x8 | x8 | x8 | x8 | x8 | x8 | x8 || x8 | %14
 x8 | x8 | x8 | x8 | x8 | x8 | x8 |] %21
V:3
 [Dd]3 [Dd] [Dc]2 [DB]2 | (Ac) (BG) [DG]2 [DF]2 | [B,D]3 [CE] [DF]2 [DB]2 | [=EG]2 (AB) [Ec]4 | %4
 [Dd]3 [Dd] [Dc]2 [DB]2 | (Ac) (BG) [DG]2 [DF]2 | [CF]2 [CG]2 (AB) [Cc]2 | [=EA]2 [EG]2 [CF]4 | %8
 [Ee]2 [Ee]2 z4 | [Dd]2 [Dd]2 z4 | [Ec]2 [E=B]2 (cA) [EF]2 | [DB]2 (AG) [DF]4 | G3 G e2 e2 || %13
 F3 F d2 d2 | B2 [DB]2 (BA) (Bc) | [Fd]2 [Ec]2 [DB]4 | x8 | x8 | x8 | x8 | x8 |] %21
V:4
 x8 | D2 D2 x4 | x8 | x2 =E2 x4 | x8 | D2 D2 x4 | x4 C2 x2 | x8 | x8 | x8 | x4 E2 x2 | x2 ^C2 x4 | %12
 G3 G e2 e2 || F3 F d2 d2 | B2 D2 E2 x2 | x8 | x8 | x8 | x8 | x8 | x8 |] %21
V:5
 [B,,F,]2 [B,,F,]2 [B,,F,]2 [B,,F,]2 | [C,A,]2 [C,A,]2 [F,,E,A,]2 [F,,E,A,]2 | %2
 [B,,B,]2 [_A,,_A,]2 [G,,G,]2 [_G,,_G,]2 | [G,,F,]2 [F,B,D]2 [F,,F,]2 [F,A,CE]2 | [B,,,B,,]4 z4 | %5
 [B,,F,]2 [F,,F,]2 [B,,F,]2 [F,,F,]2 | [B,,F,]2 [F,,F,]2 [B,,F,]2 [F,,F,]2 | %7
 [B,,F,]2 [F,,F,]2 [B,,F,]2 [F,,F,]2 | [C,B,]2 [C,B,]2 A,4 | [B,,F,]2 [F,,F,]2 [B,,F,]2 [F,,F,]2 | %10
 [B,,F,]2 [F,,F,]2 [B,,F,]2 [F,,F,]2 | [F,A,]2 [F,A,]2 [F,A,]2 [F,A,]2 | [C,B,]2 [C,B,]2 [F,A,]4 || %13
 [F,A,]2 ([F,A,]2 F,,A,,C,E,) | [F,B,]2 ([F,B,]2 B,,D,F,B,) | [F,A,]2 [F,A,]2 [F,A,]2 [F,A,]2 | %16
 [B,,F,]2 [B,,G,]2 [B,,F,]4 | G,3 G, E2 E2 | F,3 F, D2 D2 | B,2 [_A,,_A,]2 [G,,G,]2 [_G,,_G,]2 | %20
 [F,,F,]2 [F,,F,]2 [B,,F,]4 |] %21
V:6
 x8 | x8 | x8 | x8 | x8 | x8 | x8 | x8 | x4 (F,E,D,C,) | x8 | x8 | x8 | x8 || x8 | x8 | x8 | x8 | %17
 G,3 G, E2 E2 | F,3 F, D2 D2 | B,2 x6 | x8 |] %21

